X:1
T:Have at Thy Coat Old Woman
C:John Playford, The English Dancing Master, 1651
N:arr. Emma Badowski
M:C
L:1/8
K:G major
"G"Bc | d3e "Am"d3B | cA3 e2"D"Bc | d3e "G"d3A | BG3- G2 ::\
"G"ef | gfed cB"Am"AB | cA3 e2"D"Bc | d3e "G"d3A | BG3- G2 :|

